X:1
T:The Thorn Bush
T:The Thorn Bush
T:James Fraser
C:James Fraser
L:1/8
Q:1/8=128
M:4/4
K:A
V:1 treble 
V:1
|: E | A>B c>A F<A E>C | B,<B B>c d/c/B/A/ G<B | A>B c>A F<A E>C | D>F E>G A<A, A,E | %5
 A>B c>A F<A E>C | B,<B B>c d/c/B/A/ G<B | A>B c>A F<A E>C | D>F E>G A/A/A Ae | %9
 d/c/B/A/ e>A f>a e>c | d>B d/c/B/A/ G<B B>e | d/c/B/A/ e>A f>a e>c | d>B d/c/B/A/ E<A A>e | %13
 d/c/B/A/ e>A f>a e>c | d>B d/c/B/A/ G<B B>d | (3(cAc) (3(ece) (3(fdf) (3(agf) | %16
 (3(edc) (3(dcB) E<A A :| %17

